X:1
T:Ringländer (Schottis)
M:2/4
L:1/16
C: Gottfrid Pettersson
O: Kallinge, Blekinge
Q: 1/4=85
R: Schottis
K:D
dcde f4 | dcdB A4 | BGBd cAce | dcde f2A2 |
dcde f4 | dcdB A4 | BGBd cAce | d4 z4:|]
|:cBcd e4 | dcde f4 | g2ge f2fd | e4 z4 | 
cBcd e4 | dcde f4 | g2ge cAce | d4 z4 :|]

